packages/kaspersky-hexa-ui-icons/src/iconsSVGs/24/IngressK8S.svg

<svg width="24" height="24" viewBox="0 0 24 24" fill="none" xmlns="http://www.w3.org/2000/svg">
<path d="M3 19C2.44772 19 2 18.5523 2 18C2 17.4477 2.44772 17 3 17H5.90439L8.61272 12L5.90439 7H3C2.44772 7 2 6.55228 2 6C2 5.44772 2.44772 5 3 5H6.5C6.86699 5 7.2045 5.20102 7.37929 5.52372L9.75 9.90041L12.1207 5.52372C12.2955 5.20102 12.633 5 13 5H18.5858L17.2929 3.70711C16.9024 3.31658 16.9024 2.68342 17.2929 2.29289C17.6834 1.90237 18.3166 1.90237 18.7071 2.29289L21.7071 5.29289C22.0976 5.68342 22.0976 6.31658 21.7071 6.70711L18.7071 9.70711C18.3166 10.0976 17.6834 10.0976 17.2929 9.70711C16.9024 9.31658 16.9024 8.68342 17.2929 8.29289L18.5858 7H13.5956L10.8873 12L13.5956 17H18.5858L17.2929 15.7071C16.9024 15.3166 16.9024 14.6834 17.2929 14.2929C17.6834 13.9024 18.3166 13.9024 18.7071 14.2929L21.7071 17.2929C22.0976 17.6834 22.0976 18.3166 21.7071 18.7071L18.7071 21.7071C18.3166 22.0976 17.6834 22.0976 17.2929 21.7071C16.9024 21.3166 16.9024 20.6834 17.2929 20.2929L18.5858 19H13C12.633 19 12.2955 18.799 12.1207 18.4763L9.75 14.0996L7.37929 18.4763C7.2045 18.799 6.86699 19 6.5 19H3Z" fill="black"/>
</svg>

<svg xmlns="http://www.w3.org/2000/svg" width="24" height="24" fill="none" viewBox="0 0 24 24"><path fill="#000" d="M3 19c-.5523 0-1-.4477-1-1s.4477-1 1-1h2.9044l2.7083-5-2.7083-5H3c-.5523 0-1-.4477-1-1s.4477-1 1-1h3.5a1 1 0 0 1 .8793.5237L9.75 9.9004l2.3707-4.3767A1 1 0 0 1 13 5h5.5858l-1.2929-1.2929c-.3905-.3905-.3905-1.0237 0-1.4142s1.0237-.3905 1.4142 0l3 3c.3905.3905.3905 1.0237 0 1.4142l-3 3c-.3905.3905-1.0237.3905-1.4142 0s-.3905-1.0237 0-1.4142L18.5858 7h-4.9902l-2.7083 5 2.7083 5h4.9902l-1.2929-1.2929c-.3905-.3905-.3905-1.0237 0-1.4142s1.0237-.3905 1.4142 0l3 3c.3905.3905.3905 1.0237 0 1.4142l-3 3c-.3905.3905-1.0237.3905-1.4142 0s-.3905-1.0237 0-1.4142L18.5858 19H13a1 1 0 0 1-.8793-.5237L9.75 14.0996l-2.3707 4.3767A1 1 0 0 1 6.5 19z"/></svg>
